packages/icons/svg/Fill/close-circle-1.svg

<svg fill="none" height="24" viewBox="0 0 24 24" width="24" xmlns="http://www.w3.org/2000/svg"><path clip-rule="evenodd" d="m14.707 13.293c.391.391.391 1.023 0 1.414-.195.195-.451.293-.707.293s-.512-.098-.707-.293l-1.293-1.293-1.293 1.293c-.195.195-.451.293-.70701.293-.256 0-.512-.098-.707-.293-.391-.391-.391-1.023 0-1.414l1.29301-1.293-1.29301-1.293c-.391-.391-.391-1.023 0-1.414s1.02301-.391 1.41401 0l1.293 1.293 1.293-1.293c.391-.391 1.023-.391 1.414 0s.391 1.023 0 1.414l-1.293 1.293zm3.293-10.293h-12c-1.654 0-3 1.346-3 3v12c0 1.654 1.346 3 3 3h12c1.654 0 3-1.346 3-3v-12c0-1.654-1.346-3-3-3z" fill="#6b7280" fill-rule="evenodd"/></svg>

<svg width="24" height="24" viewBox="0 0 24 24" fill="none" xmlns="http://www.w3.org/2000/svg">
<g id="Icon/Fill/close-circle">
<path id="Mask" fill-rule="evenodd" clip-rule="evenodd" d="M14.707 13.293C15.098 13.684 15.098 14.316 14.707 14.707C14.512 14.902 14.256 15 14 15C13.744 15 13.488 14.902 13.293 14.707L12 13.414L10.707 14.707C10.512 14.902 10.256 15 10 15C9.744 15 9.488 14.902 9.293 14.707C8.902 14.316 8.902 13.684 9.293 13.293L10.586 12L9.293 10.707C8.902 10.316 8.902 9.684 9.293 9.293C9.684 8.902 10.316 8.902 10.707 9.293L12 10.586L13.293 9.293C13.684 8.902 14.316 8.902 14.707 9.293C15.098 9.684 15.098 10.316 14.707 10.707L13.414 12L14.707 13.293ZM18 3H6C4.346 3 3 4.346 3 6V18C3 19.654 4.346 21 6 21H18C19.654 21 21 19.654 21 18V6C21 4.346 19.654 3 18 3Z" fill="#000000"/>
</g>
</svg>
